creative/fonts/makina.svg

<?xml version="1.0" encoding="UTF-8" standalone="no"?>
<svg width="400" height="700" version="1.1" id="svg5" sodipodi:docname="makina.svg" inkscape:version="1.4.3 (0d15f750, 2025-12-25)" xmlns:inkscape="http://www.inkscape.org/namespaces/inkscape" xmlns:sodipodi="http://sodipodi.sourceforge.net/DTD/sodipodi-0.dtd" xmlns="http://www.w3.org/2000/svg" xmlns:svg="http://www.w3.org/2000/svg">
    <defs id="defs5" />
    <sodipodi:namedview id="namedview5" pagecolor="#ffffff" bordercolor="#000000" borderopacity="0.25" inkscape:showpageshadow="2" inkscape:pageopacity="0.0" inkscape:pagecheckerboard="0" inkscape:deskcolor="#d1d1d1" inkscape:zoom="0.42310559" inkscape:cx="189.0781" inkscape:cy="349.79448" inkscape:window-width="1095" inkscape:window-height="723" inkscape:window-x="0" inkscape:window-y="25" inkscape:window-maximized="0" inkscape:current-layer="svg5" />
    <path id="path5" style="fill:none;stroke:#ff0000" d="m 50,200 v 50 h 50 v -50 z m 50,50 v 50 h 50 v -50 z m 50,50 v 50 h 50 v -50 z m 50,50 v 50 h 50 v -50 z m 50,50 v 50 h 50 v -50 z m 0,-200 v 50 h 50 v -50 z m 0,50 h -50 v 50 h 50 z m -50,50 h -50 v 50 h 50 z m -50,50 h -50 v 50 h 50 z m -50,50 H 50 v 50 h 50 z M 0,300 v 50 H 350 V 300 Z M 100,150 v 50 h 150 v -50 z m 150,50 v 50 h 50 v -50 z m 50,50 v 150 h 50 V 250 Z m 0,150 h -50 v 50 h 50 z m -50,50 H 100 v 50 h 150 z m -150,0 V 400 H 50 v 50 z M 50,400 V 250 H 0 v 150 z m 0,-150 h 50 V 200 H 50 Z m 100,0 v 50 h 50 v -50 z m 50,50 v 50 h 50 v -50 z m 0,50 h -50 v 50 h 50 z m -50,0 v -50 h -50 v 50 z" />
</svg>

<svg width="400" height="700" xmlns="http://www.w3.org/2000/svg">
    <path
        d="M 150 250 L 150 300 L 200 300 L 200 250 L 150 250 z M 200 300 L 200 350 L 250 350 L 250 300 L 200 300 z M 200 350 L 150 350 L 150 400 L 200 400 L 200 350 z M 150 350 L 150 300 L 100 300 L 100 350 L 150 350 z " />
    <path
        d="m 100,150 v 50 h 150 v -50 z m 150,50 v 50 h 50 v -50 z m 50,50 v 150 h 50 V 250 Z m 0,150 h -50 v 50 h 50 z m -50,50 H 100 v 50 h 150 z m -150,0 V 400 H 50 v 50 z M 50,400 V 250 H 0 v 150 z m 0,-150 h 50 V 200 H 50 Z" />
    <path d="M 0 300 L 0 350 L 350 350 L 350 300 L 0 300 z " />
    <path
        d="M 250 200 L 250 250 L 300 250 L 300 200 L 250 200 z M 250 250 L 200 250 L 200 300 L 250 300 L 250 250 z M 200 300 L 150 300 L 150 350 L 200 350 L 200 300 z M 150 350 L 100 350 L 100 400 L 150 400 L 150 350 z M 100 400 L 50 400 L 50 450 L 100 450 L 100 400 z " />
    <path
        d="M 50 200 L 50 250 L 100 250 L 100 200 L 50 200 z M 100 250 L 100 300 L 150 300 L 150 250 L 100 250 z M 150 300 L 150 350 L 200 350 L 200 300 L 150 300 z M 200 350 L 200 400 L 250 400 L 250 350 L 200 350 z M 250 400 L 250 450 L 300 450 L 300 400 L 250 400 z " />
</svg>
